updated-assets/images/whip-rides.svg

<svg width="57" height="57" viewBox="0 0 57 57" fill="none" xmlns="http://www.w3.org/2000/svg">
<rect width="56" height="56" transform="translate(0.643311 0.5)" fill="#00BFBF"/>
<path d="M39.5425 11.649C39.6668 11.529 39.7595 11.4343 39.8596 11.348C39.901 11.3122 39.958 11.2944 40.062 11.2402C40.062 18.9841 40.062 26.6957 40.062 34.4455C39.8643 34.455 39.6803 34.4714 39.4962 34.4715C36.6967 34.4733 33.8971 34.4814 31.0977 34.4591C30.8332 34.457 30.5413 34.3036 30.3113 34.1478C29.1056 33.3313 28.6309 32.1953 28.8903 30.7557C28.9196 30.5934 28.9097 30.4239 28.9201 30.2132C29.4687 30.2132 29.9917 30.2132 30.614 30.2132C30.614 29.1545 30.614 28.1409 30.614 27.1274C30.614 25.2358 30.6226 23.3442 30.6089 21.4527C30.6047 20.8672 30.7963 20.4093 31.2162 19.9913C33.991 17.229 36.7499 14.4507 39.5425 11.649Z" fill="#FEFEFD"/>
<path d="M26.9071 22.2333C26.9071 24.8966 26.9071 27.5038 26.9071 30.1766C27.4972 30.1766 28.0155 30.1766 28.6051 30.1766C28.6051 31.03 28.6153 31.8195 28.5948 32.6082C28.5915 32.7356 28.4683 32.8735 28.3733 32.9829C27.0808 34.4728 27.0796 34.4718 25.1221 34.4718C22.589 34.4718 20.0559 34.4718 17.4749 34.4718C17.4749 26.7259 17.4749 19.0085 17.4749 11.2051C17.7235 11.4269 17.9368 11.5988 18.1291 11.7916C20.6799 14.3496 23.1985 16.9407 25.7937 19.4528C26.6076 20.2405 27.0869 21.0424 26.9071 22.2333Z" fill="#FEFFFE"/>
<path d="M8.90636 45.1626C8.14518 43.1898 7.39538 41.2574 6.6123 39.2393C7.07117 39.2393 7.46436 39.2043 7.84538 39.2571C7.99041 39.2772 8.17041 39.4761 8.22712 39.6324C8.5927 40.6403 8.92856 41.659 9.31987 42.8084C9.64652 41.9931 9.95306 41.3068 10.1853 40.5962C10.2478 40.4048 10.0929 40.137 10.0223 39.909C9.96186 39.7138 9.87927 39.5254 9.77007 39.2382C10.0736 39.2382 10.3106 39.2602 10.5417 39.2331C10.897 39.1913 11.0764 39.3224 11.2054 39.6658C11.5631 40.6183 11.9642 41.5545 12.4094 42.6475C12.7871 41.4331 13.1237 40.351 13.4635 39.2585C13.9034 39.2585 14.3158 39.2585 14.8198 39.2585C14.0157 41.4229 13.2267 43.5464 12.3913 45.7949C11.8797 44.5292 11.4137 43.376 10.8995 42.1037C10.3063 43.3626 9.75866 44.5249 9.16995 45.7743C9.06454 45.5355 8.99114 45.3692 8.90636 45.1626Z" fill="#FCFDFA"/>
<path d="M21.1754 44.0264C21.1754 44.5337 21.1754 44.9846 21.1754 45.4703C20.7489 45.4703 20.3611 45.4703 19.9196 45.4703C19.9196 44.6666 19.9196 43.8609 19.9196 43.0048C18.9924 43.0048 18.1164 43.0048 17.16 43.0048C17.16 43.824 17.16 44.6448 17.16 45.4751C16.6912 45.4751 16.3022 45.4751 15.8838 45.4751C15.8838 43.3907 15.8838 41.3365 15.8838 39.199C16.1734 39.199 16.4519 39.213 16.7284 39.1954C17.0537 39.1746 17.1597 39.3157 17.1526 39.6295C17.1374 40.3062 17.1479 40.9834 17.1479 41.6975C18.0744 41.6975 18.9347 41.6975 19.8815 41.6975C19.8815 40.8826 19.8815 40.0643 19.8815 39.2332C20.3561 39.2332 20.7442 39.2332 21.1754 39.2332C21.1754 40.8353 21.1754 42.4026 21.1754 44.0264Z" fill="#FAFCF7"/>
<path d="M42.0012 39.2061C44.4706 39.4902 45.7992 41.7213 44.784 43.8067C44.2729 44.8564 43.38 45.3783 42.2594 45.4702C41.4362 45.5377 40.603 45.4835 39.7346 45.4835C39.7346 43.3998 39.7346 41.3348 39.7346 39.2012C40.4853 39.2012 41.2178 39.2012 42.0012 39.2061ZM42.0627 40.4037C41.7254 40.4037 41.388 40.4037 41.0302 40.4037C41.0302 41.7002 41.0302 42.9671 41.0302 44.2286C42.6062 44.3934 43.5375 43.8884 43.7404 42.7896C43.9663 41.5659 43.4026 40.7192 42.0627 40.4037Z" fill="#FCFDF9"/>
<path d="M33.1408 43.5973C32.8613 43.5307 32.6128 43.4963 32.31 43.4542C32.31 44.1647 32.31 44.7993 32.31 45.4681C31.8765 45.4681 31.4914 45.4681 31.0676 45.4681C31.0676 43.3973 31.0676 41.332 31.0676 39.2755C31.9819 39.2755 32.8908 39.1978 33.7792 39.2994C34.5255 39.3848 35.1197 39.8541 35.3067 40.6346C35.5086 41.4773 35.4232 42.2882 34.7777 42.9523C34.6878 43.0448 34.5829 43.1226 34.4576 43.2308C34.919 43.9634 35.3754 44.6882 35.8881 45.5023C35.3976 45.5023 35.0076 45.5253 34.623 45.4899C34.487 45.4773 34.327 45.3483 34.2417 45.2274C33.8722 44.7038 33.5263 44.1636 33.1408 43.5973ZM33.9055 41.9309C34.1755 41.545 34.1836 41.132 33.9109 40.77C33.4959 40.2192 32.8976 40.4408 32.3244 40.4389C32.3244 41.0544 32.3244 41.6304 32.3244 42.3867C32.876 42.2467 33.3632 42.123 33.9055 41.9309Z" fill="#FDFEFB"/>
<path d="M49.3225 41.7364C49.6401 41.7364 49.902 41.7364 50.2007 41.7364C50.2007 42.1442 50.2007 42.5131 50.2007 42.9452C49.3392 42.9452 48.4757 42.9452 47.5733 42.9452C47.5733 43.3946 47.5733 43.7824 47.5733 44.2495C48.5877 44.2495 49.614 44.2495 50.6745 44.2495C50.6745 44.6954 50.6745 45.064 50.6745 45.4692C49.2286 45.4692 47.7849 45.4692 46.3098 45.4692C46.3098 43.3924 46.3098 41.3383 46.3098 39.2412C47.7244 39.2412 49.1318 39.2412 50.5588 39.2412C50.5588 39.6234 50.5588 39.9783 50.5588 40.3939C49.5731 40.3939 48.6 40.3939 47.5801 40.3939C47.5801 40.8547 47.5801 41.2559 47.5801 41.7364C48.146 41.7364 48.7064 41.7364 49.3225 41.7364Z" fill="#FBFDF8"/>
<path d="M28.6428 39.3716C29.7045 39.8839 30.1097 40.6427 29.9046 41.7878C29.6008 43.4844 28.2807 43.5479 26.8971 43.53C26.8971 44.1882 26.8971 44.8037 26.8971 45.4614C26.4575 45.4614 26.071 45.4614 25.6418 45.4614C25.6418 43.4126 25.6418 41.345 25.6418 39.1367C26.6282 39.2112 27.6139 39.2857 28.6428 39.3716ZM28.5257 41.8729C28.7512 41.4697 28.7654 41.051 28.4542 40.7108C28.0233 40.2399 27.4547 40.4237 26.9036 40.4491C26.9036 41.0629 26.9036 41.6364 26.9036 42.2461C27.4714 42.2338 28.0338 42.4468 28.5257 41.8729Z" fill="#FDFEFB"/>
<path d="M22.7625 42.2105C22.7625 41.1931 22.7625 40.2325 22.7625 39.2363C23.1865 39.2363 23.5729 39.2363 23.986 39.2363C23.986 41.3139 23.986 43.365 23.986 45.4597C23.6059 45.4597 23.2223 45.4597 22.7625 45.4597C22.7625 44.4037 22.7625 43.3355 22.7625 42.2105Z" fill="#FEFEFD"/>
<path d="M36.8562 43.5725C36.8562 42.1017 36.8562 40.6877 36.8562 39.2363C37.2812 39.2363 37.651 39.2363 38.0657 39.2363C38.0657 41.3105 38.0657 43.3762 38.0657 45.4732C37.6867 45.4732 37.3153 45.4732 36.8562 45.4732C36.8562 44.8624 36.8562 44.2458 36.8562 43.5725Z" fill="#FBFDF8"/>
</svg>

<svg width="57" height="57" fill="none" xmlns="http://www.w3.org/2000/svg"><path fill="#00BFBF" d="M.643.5h56v56h-56z"/><path d="M39.542 11.649c.125-.12.218-.215.318-.301.041-.036.098-.054.202-.108v23.206c-.198.009-.382.025-.566.026-2.8.001-5.599.01-8.398-.013-.265-.002-.557-.155-.787-.311-1.205-.817-1.68-1.953-1.42-3.392.029-.163.019-.332.03-.543h1.693v-3.086c0-1.891.009-3.783-.005-5.674-.004-.586.187-1.044.607-1.462 2.775-2.762 5.534-5.54 8.326-8.342Z" fill="#FEFEFD"/><path d="M26.907 22.233v7.944h1.698c0 .853.01 1.643-.01 2.431-.003.128-.127.266-.222.375-1.292 1.49-1.293 1.489-3.25 1.489h-7.648V11.205c.248.222.462.394.654.587 2.55 2.558 5.07 5.149 7.665 7.66.814.788 1.293 1.59 1.113 2.781Z" fill="#FEFFFE"/><path d="M8.906 45.163c-.76-1.973-1.51-3.906-2.294-5.924.46 0 .852-.035 1.233.018.145.02.325.22.382.375.366 1.008.702 2.027 1.093 3.176.327-.815.633-1.501.865-2.212.063-.191-.092-.459-.163-.687-.06-.195-.143-.384-.252-.67.304 0 .54.021.772-.006.355-.042.534.09.663.433.358.952.76 1.889 1.204 2.982l1.054-3.39h1.357l-2.429 6.537-1.492-3.691-1.729 3.67a23.798 23.798 0 0 1-.264-.611Z" fill="#FCFDFA"/><path d="M21.175 44.026v1.444H19.92v-2.465h-2.76v2.47h-1.276V39.2c.29 0 .568.014.844-.004.326-.02.432.12.425.434-.016.677-.005 1.354-.005 2.069h2.733v-2.465h1.294v4.793Z" fill="#FAFCF7"/><path d="M42.001 39.206c2.47.284 3.798 2.515 2.783 4.6-.511 1.05-1.404 1.572-2.525 1.664-.823.068-1.656.014-2.524.014V39.2c.75 0 1.483 0 2.266.005Zm.062 1.198H41.03v3.825c1.576.164 2.508-.34 2.71-1.44.226-1.223-.337-2.07-1.677-2.385Z" fill="#FCFDF9"/><path d="M33.14 43.597c-.279-.066-.527-.1-.83-.143v2.014h-1.242v-6.193c.914 0 1.823-.077 2.711.024.746.086 1.34.555 1.528 1.336.202.842.116 1.653-.53 2.317-.09.093-.194.17-.32.279l1.431 2.271c-.49 0-.88.023-1.265-.012-.136-.013-.296-.142-.381-.263-.37-.523-.716-1.063-1.101-1.63Zm.766-1.666c.27-.386.278-.799.005-1.161-.415-.55-1.013-.33-1.587-.331v1.948c.552-.14 1.04-.264 1.582-.456Z" fill="#FDFEFB"/><path d="M49.322 41.736h.879v1.21h-2.628v1.303h3.102v1.22H46.31v-6.228h4.249v1.153H47.58v1.342h1.742Z" fill="#FBFDF8"/><path d="M28.643 39.372c1.061.512 1.467 1.27 1.262 2.416-.304 1.696-1.624 1.76-3.008 1.742v1.931h-1.255v-6.324c.986.074 1.972.149 3 .235Zm-.117 2.5c.225-.402.24-.821-.072-1.161-.43-.471-1-.287-1.55-.262v1.797c.567-.012 1.13.2 1.622-.373Z" fill="#FDFEFB"/><path d="M22.762 42.21v-2.974h1.224v6.224h-1.224v-3.25Z" fill="#FEFEFD"/><path d="M36.856 43.572v-4.336h1.21v6.237h-1.21v-1.9Z" fill="#FBFDF8"/></svg>
